X:565
T:Göingedansen
T:(efter Enninger, SvL Skåne nr. 565)
S:efter John Enninger
R:Långdans
Z:Patrik Månsson, 2009-02-15
O:Höör, Skåne
B:John Enninger
B:Svenska Låtar Skåne
D:Inspelad som låt 7 på "Skåne runt på 75 minuter"
M:3/4
L:1/8
K:A
|: cd e2 fg | a2 e2 ed | cd e2 fg | {b}a z e4 :|
|: cd e2 ed | cd e2 ed | cd e2 ed | cB A3 z :|

